X:1
T:Florence, LM
T:Florence, LM
T:Anonymous, 1892
T:Public Domain Courtesy of the Cyber Hymnal™
C:Anonymous, 1892
Z:Public Domain
Z:Courtesy of the Cyber Hymnal™
%%score 1 ( 2 3 )
L:1/8
Q:1/4=95
M:3/4
K:Ab
V:1 treble 
V:2 bass 
V:3 bass 
V:1
 [Ec]2 | [Ec]>[=D=B] [Ec]2 [CE]2 | [=B,=D]>[B,F] [CE]2 [EA]2 | [Ed]3 [Ec] [EG][EA] | %4
 [EB]>[E=A] [DB]2 [DE]2 | [Cc]>[=D=B] [Ec]2 [Ec]2 | [Ed]>[Ec] [Ed]3 [F=d] | [Af]3 [Ae] [FA][Fd] | %8
 [Ec]4 [DB]2 | [CA]4 |] %10
V:2
 [A,,E,]2 | [A,,A,]>[A,,F,] [A,,E,]2 [A,,A,]2 | [A,,F,]>[A,,=D,] [A,,E,]2 [C,E,]2 | %3
 [B,,G,]3 [C,A,] [D,B,][C,A,] | [E,G,]>[E,^F,] [E,G,]2 [E,G,]2 | %5
 [A,,A,]>[A,,F,] [A,,E,]2 [A,,A,]2 | [B,,G,]>[=A,,^F,] [B,,G,]3 [=B,,=A,] | %7
 [C,A,]3 [C,A,] [D,A,][B,,A,] | A,2 F,2 [E,G,]2 | [A,,A,]4 |] %10
V:3
 x2 | x6 | x6 | x6 | x6 | x6 | x6 | x6 | E,4 x2 | x4 |] %10

